glitch-avatars-svg/base_avatar/Avatar.fla/placeholder symbols 3/Avatar_sideArmLowerClose3.svg

<?xml version="1.0" encoding="UTF-8" standalone="no"?>
<!-- Generator: flash2svg, http://dissentgraphics.com/tools/flash2svg -->

<svg
   xmlns:dc="http://purl.org/dc/elements/1.1/"
   xmlns:cc="http://creativecommons.org/ns#"
   xmlns:rdf="http://www.w3.org/1999/02/22-rdf-syntax-ns#"
   xmlns:svg="http://www.w3.org/2000/svg"
   xmlns="http://www.w3.org/2000/svg"
   xmlns:sodipodi="http://sodipodi.sourceforge.net/DTD/sodipodi-0.dtd"
   xmlns:inkscape="http://www.inkscape.org/namespaces/inkscape"
   id="Avatar"
   image-rendering="auto"
   version="1.1"
   x="0px"
   y="0px"
   width="7.8020835"
   height="17.42732"
   viewBox="0 0 7.8020835 17.42732"
   inkscape:version="0.48.4 r9939"
   sodipodi:docname="Avatar_sideArmLowerClose3.svg">
  <metadata
     id="metadata21">
    <rdf:RDF>
      <cc:Work
         rdf:about="">
        <dc:format>image/svg+xml</dc:format>
        <dc:type
           rdf:resource="http://purl.org/dc/dcmitype/StillImage" />
      </cc:Work>
    </rdf:RDF>
  </metadata>
  <sodipodi:namedview
     pagecolor="#ffffff"
     bordercolor="#666666"
     borderopacity="1"
     objecttolerance="10"
     gridtolerance="10"
     guidetolerance="10"
     inkscape:pageopacity="0"
     inkscape:pageshadow="2"
     inkscape:window-width="640"
     inkscape:window-height="472"
     id="namedview19"
     showgrid="false"
     fit-margin-top="0"
     fit-margin-left="0"
     fit-margin-right="0"
     fit-margin-bottom="0"
     inkscape:zoom="1.8730159"
     inkscape:cx="38.152083"
     inkscape:cy="40.985507"
     inkscape:window-x="216"
     inkscape:window-y="103"
     inkscape:window-maximized="0"
     inkscape:current-layer="Avatar" />
  <defs
     id="defs3">
    <radialGradient
       gradientUnits="userSpaceOnUse"
       color-interpolation="sRGB"
       r="12.42028"
       cx="0.1"
       cy="2.2"
       fx="0.1"
       fy="2.2"
       gradientTransform="matrix(-0.00895691,1,0.6892395,0.02191162,-1.399,2.05)"
       id="radialGradient">
      <stop
         stop-color="#FFF"
         stop-opacity="0.7058823529411765"
         offset="0"
         id="stop6" />
      <stop
         stop-color="#FFF"
         stop-opacity="0.2980392156862745"
         offset="1"
         id="stop8" />
    </radialGradient>
    <radialGradient
       gradientUnits="userSpaceOnUse"
       color-interpolation="sRGB"
       r="12.421"
       cx="-1.249"
       cy="4.25"
       fx="-1.249"
       fy="4.25"
       gradientTransform="matrix(-0.009,1,0.689,0.022,-2.699,3.3)"
       id="radialGradient1">
      <stop
         stop-color="#FFF"
         stop-opacity="0.7058823529411765"
         offset="0"
         id="stop11" />
      <stop
         stop-color="#FFF"
         stop-opacity="0.2980392156862745"
         offset="1"
         id="stop13" />
    </radialGradient>
  </defs>
  <g
     id="sideArmLowerClose4"
     overflow="visible"
     style="overflow:visible"
     transform="translate(4.1520833,1.4)">
    <g
       id="sideArmLowerClose3_0">
      <g
         id="element">
        <path
           id="path"
           d="M 3.65,7.4 C 3.65,5.95 3.55,4.55 3.25,3.2 2.9,1.6 2.35,0.45 1.65,-0.35 1.15,-1 0.5,-1.35 -0.2,-1.4 l -0.55,0.1 c -0.9,0.55 -1.7,2.4 -2.3,5.55 -1.15,5.45 -1.4,8.65 -0.75,9.55 0.9,1.05 1.9,1.7 3.05,2.05 L -0.9,15.9 c 0.1,0.05 0.25,0.05 0.4,0 0.5,0.2 1.1,0.15 1.6,-0.05 l 0,-0.05 C 1.85,15.45 2.45,14.35 2.9,12.6 3.3,11.15 3.5,9.45 3.65,7.4 z M 1.55,-0.2 1.9,0.35 1.3,0.3 0.75,-0.65 0.25,-1.05 c 0.5,0.15 0.9,0.4 1.3,0.85 z m -1,-0.25 0.5,0.7 -0.7,0 -0.2,-1.05 0.4,0.35 z m 1.5,1.1 c 0.25,0.4 0.5,0.95 0.7,1.6 L 2.05,2 C 1.85,1.5 1.7,1.05 1.5,0.55 l 0.55,0.1 z M 1.2,0.55 C 1.4,1 1.6,1.45 1.75,1.95 L 0.5,1.85 0.35,0.55 1.2,0.55 z M 0.15,1.8 C -0.45,1.85 -1,1.9 -1.6,2 L -1.05,0.7 0.05,0.55 0.15,1.8 z M 1.9,2.3 2.25,3.95 C 1.5,3.75 0.9,3.6 0.55,3.6 L 0.5,2.1 1.9,2.3 z m 0.35,1.95 c 0.1,0.5 0.2,1.2 0.2,2.25 C 1.7,6.15 1,6 0.5,5.95 L 0.55,3.9 c 0.8,0.1 1.4,0.25 1.7,0.35 z M 0.2,5.9 C -0.7,5.75 -1.65,5.8 -2.7,5.95 -2.65,5.4 -2.5,4.75 -2.3,4 -1.35,3.85 -0.5,3.8 0.25,3.85 L 0.2,5.9 z M 3.25,4.65 C 3.35,5.4 3.35,6.1 3.4,6.95 L 2.85,6.6 l -0.2,0 c 0,-0.75 0,-1.45 -0.1,-2.25 l 0.7,0.3 z M 2.5,4.05 2.15,2.4 2.8,2.55 C 3.05,3.15 3.15,3.7 3.25,4.3 L 2.5,4.05 z M 0.25,3.55 c -0.85,-0.05 -1.7,0 -2.5,0.15 l 0.5,-1.4 C -1.2,2.2 -0.55,2.15 0.2,2.1 l 0.05,1.45 z m 3,5.65 C 3.15,9.05 2.95,9 2.7,8.9 l -0.1,-0.05 0.05,-2 0.05,0 0.7,0.35 -0.15,2 z M 2.3,8.75 C 1.7,8.45 1,8.25 0.35,8.15 l 0.1,-2 c 0.75,0.15 1.4,0.35 2,0.65 l 0,0.45 -0.15,1.5 z M 2.3,9 2,11.5 1.65,11.3 C 1.15,11.05 0.6,10.8 0,10.65 L 0.3,8.45 C 1.1,8.6 1.75,8.75 2.3,9 z M 1.95,11.75 1.5,13.35 C 0.9,13 0.25,12.85 -0.35,12.75 l 0.3,-1.8 c 0.7,0.2 1.25,0.35 1.65,0.65 l 0.35,0.15 z m 0.85,0.3 C 2.65,11.85 2.4,11.7 2.25,11.6 L 2.6,9.15 3.25,9.45 C 3.1,10.45 3,11.3 2.8,12.05 z M 2.75,12.3 C 2.5,13.2 2.4,13.75 2.3,13.8 l -0.45,-0.3 -0.1,-0.05 0.4,-1.6 0.6,0.45 z M 0.05,8.1 C -0.95,8 -1.9,8 -2.85,8.25 l 0.1,-2 C -1.7,6.1 -0.75,6 0.2,6.15 L 0.05,8.1 z m 1.7,5.65 0.5,0.3 c -0.4,0.8 -0.8,1.3 -1.2,1.5 L 1,15.65 c -0.15,0.05 -0.4,0.15 -0.7,0.1 0.5,-0.25 0.95,-0.9 1.35,-2 l 0.1,0 z M 0.1,15.55 -0.45,15.65 -1,15.5 -0.4,13 c 0.65,0.1 1.3,0.35 1.85,0.6 -0.35,1.05 -0.8,1.65 -1.3,1.9 L 0.1,15.55 z M -0.15,-1.1 C -0.4,-1 -0.6,-0.9 -0.65,-0.7 L -1.2,0.5 -1.75,0.55 c 0.4,-0.9 0.75,-1.4 1.15,-1.6 0.15,-0.05 0.3,-0.05 0.4,-0.05 l 0.05,0 z m 0,0.3 0.15,1.15 -0.95,0.05 0.5,-0.9 0.3,-0.3 z m -1.2,1.55 -0.5,1.3 -0.5,0.1 0.5,-1.25 0.5,-0.15 z m -0.6,1.6 -0.45,1.45 -0.35,0.05 0.35,-1.4 0.45,-0.1 z m -1.25,3.8 0.4,-1.8 c 0,-0.05 0,-0.1 0.05,-0.2 L -2.5,4.05 C -2.65,4.65 -2.8,5.3 -2.95,6 L -3.2,6.15 z m -0.05,0.2 0.3,-0.1 -0.2,2.05 -0.5,0.1 0.4,-2.05 z m 0.1,2.15 -0.25,2.2 -0.55,0.1 0.3,-2.15 0.5,-0.15 z m -0.3,2.45 c -0.1,1.1 -0.15,1.75 -0.1,2.05 l -0.3,0.1 c -0.1,-0.5 -0.1,-1.1 -0.1,-2.05 l 0.5,-0.1 z m 3.15,-0.05 -0.35,1.8 c -0.9,-0.1 -1.85,-0.05 -2.7,0.25 0,-0.7 0,-1.4 0.15,-2.05 0.9,-0.2 1.9,-0.2 2.9,0 z m -2.95,-0.25 0.3,-2.2 c 1.15,-0.15 2.1,-0.2 2.9,-0.05 l -0.2,2.2 c -1.05,-0.2 -2.05,-0.2 -3,0.05 z m 1.95,4.75 c -0.5,-0.2 -0.95,-0.55 -1.35,-0.85 l -0.1,-0.1 c -0.3,-0.25 -0.45,-0.7 -0.6,-1.25 0.95,-0.25 1.8,-0.3 2.6,-0.2 l -0.55,2.4 z m -2.1,-1.6 -0.25,-0.2 -0.15,-0.3 0.25,-0.1 0.15,0.6 z"
           inkscape:connector-curvature="0"
           style="fill:url(#radialGradient1)" />
      </g>
    </g>
  </g>
</svg>

<?xml version="1.0" encoding="utf-8"?>
<!-- Generator: flash2svg, http://dissentgraphics.com/tools/flash2svg -->
<svg xmlns:xlink="http://www.w3.org/1999/xlink" id="Avatar" image-rendering="auto" baseProfile="basic" version="1.1" x="0px" y="0px" width="68" height="126" xmlns="http://www.w3.org/2000/svg" viewBox="0 0 68 126">
  <defs>
    <radialGradient gradientUnits="userSpaceOnUse" color-interpolation="sRGB" r="12.420280485273848" cx="0.1" cy="2.2" fx="0.09999999999999964" fy="2.2" gradientTransform="matrix(-0.0089569091796875 1 0.689239501953125 0.02191162109375 -1.399 2.05)" id="radialGradient">
      <stop stop-color="#FFF" stop-opacity="0.7058823529411765" offset="0"/>
      <stop stop-color="#FFF" stop-opacity="0.2980392156862745" offset="1"/>
    </radialGradient>
    <radialGradient gradientUnits="userSpaceOnUse" color-interpolation="sRGB" r="12.421" cx="-1.249" cy="4.25" fx="-1.249" fy="4.25" gradientTransform="matrix(-0.009 1 0.689 0.022 -2.699 3.3)" id="radialGradient1">
      <stop stop-color="#FFF" stop-opacity="0.7058823529411765" offset="0"/>
      <stop stop-color="#FFF" stop-opacity="0.2980392156862745" offset="1"/>
    </radialGradient>
  </defs>
  <g id="sideArmLowerClose4" overflow="visible">
    <g id="sideArmLowerClose3_0">
      <g id="element">
        <path id="path" fill="url(#radialGradient1)" d="M3.65,7.4 C3.65,5.95 3.55,4.55 3.25,3.2 2.9,1.6 2.35,0.45 1.65,-0.35 1.15,-1 0.5,-1.35 -0.2,-1.4 L-0.75,-1.3 C-1.65,-0.75 -2.45,1.1 -3.05,4.25 -4.2,9.7 -4.45,12.9 -3.8,13.8 -2.9,14.85 -1.9,15.5 -0.75,15.85 L-0.9,15.9 C-0.8,15.95 -0.65,15.95 -0.5,15.9 0,16.1 0.6,16.05 1.1,15.85 L1.1,15.8 C1.85,15.45 2.45,14.35 2.9,12.6 3.3,11.15 3.5,9.45 3.65,7.4z M1.55,-0.2 L1.9,0.35 1.3,0.3 0.75,-0.65 0.25,-1.05 C0.75,-0.9 1.15,-0.65 1.55,-0.2z M0.55,-0.45 L1.05,0.25 0.35,0.25 0.15,-0.8 0.55,-0.45z M2.05,0.65 C2.3,1.05 2.55,1.6 2.75,2.25 L2.05,2 C1.85,1.5 1.7,1.05 1.5,0.55 L2.05,0.65z M1.2,0.55 C1.4,1 1.6,1.45 1.75,1.95 L0.5,1.85 0.35,0.55 1.2,0.55z M0.15,1.8 C-0.45,1.85 -1,1.9 -1.6,2 L-1.05,0.7 0.05,0.55 0.15,1.8z M1.9,2.3 L2.25,3.95 C1.5,3.75 0.9,3.6 0.55,3.6 L0.5,2.1 1.9,2.3z M2.25,4.25 C2.35,4.75 2.45,5.45 2.45,6.5 1.7,6.15 1,6 0.5,5.95 L0.55,3.9 C1.35,4 1.95,4.15 2.25,4.25z M0.2,5.9 C-0.7,5.75 -1.65,5.8 -2.7,5.95 -2.65,5.4 -2.5,4.75 -2.3,4 -1.35,3.85 -0.5,3.8 0.25,3.85 L0.2,5.9z M3.25,4.65 C3.35,5.4 3.35,6.1 3.4,6.95 L2.85,6.6 2.65,6.6 C2.65,5.85 2.65,5.15 2.55,4.35 L3.25,4.65z M2.5,4.05 L2.15,2.4 2.8,2.55 C3.05,3.15 3.15,3.7 3.25,4.3 L2.5,4.05z M0.25,3.55 C-0.6,3.5 -1.45,3.55 -2.25,3.7 L-1.75,2.3 C-1.2,2.2 -0.55,2.15 0.2,2.1 L0.25,3.55z M3.25,9.2 C3.15,9.05 2.95,9 2.7,8.9 L2.6,8.85 2.65,6.85 2.7,6.85 3.4,7.2 3.25,9.2z M2.3,8.75 C1.7,8.45 1,8.25 0.35,8.15 L0.45,6.15 C1.2,6.3 1.85,6.5 2.45,6.8 L2.45,7.25 2.3,8.75z M2.3,9 L2,11.5 1.65,11.3 C1.15,11.05 0.6,10.8 0,10.65 L0.3,8.45 C1.1,8.6 1.75,8.75 2.3,9z M1.95,11.75 L1.5,13.35 C0.9,13 0.25,12.85 -0.35,12.75 L-0.05,10.95 C0.65,11.15 1.2,11.3 1.6,11.6 L1.95,11.75z M2.8,12.05 C2.65,11.85 2.4,11.7 2.25,11.6 L2.6,9.15 3.25,9.45 C3.1,10.45 3,11.3 2.8,12.05z M2.75,12.3 C2.5,13.2 2.4,13.75 2.3,13.8 L1.85,13.5 1.75,13.45 2.15,11.85 2.75,12.3z M0.05,8.1 C-0.95,8 -1.9,8 -2.85,8.25 L-2.75,6.25 C-1.7,6.1 -0.75,6 0.2,6.15 L0.05,8.1z M1.75,13.75 L2.25,14.05 C1.85,14.85 1.45,15.35 1.05,15.55 L1,15.65 C0.85,15.7 0.6,15.8 0.3,15.75 0.8,15.5 1.25,14.85 1.65,13.75 L1.75,13.75z M0.1,15.55 L-0.45,15.65 -1,15.5 -0.4,13 C0.25,13.1 0.9,13.35 1.45,13.6 1.1,14.65 0.65,15.25 0.15,15.5 L0.1,15.55z M-0.15,-1.1 C-0.4,-1 -0.6,-0.9 -0.65,-0.7 L-1.2,0.5 -1.75,0.55 C-1.35,-0.35 -1,-0.85 -0.6,-1.05 -0.45,-1.1 -0.3,-1.1 -0.2,-1.1 L-0.15,-1.1z M-0.15,-0.8 L0,0.35 -0.95,0.4 -0.45,-0.5 -0.15,-0.8z M-1.35,0.75 L-1.85,2.05 -2.35,2.15 -1.85,0.9 -1.35,0.75z M-1.95,2.35 L-2.4,3.8 -2.75,3.85 -2.4,2.45 -1.95,2.35z M-3.2,6.15 L-2.8,4.35 C-2.8,4.3 -2.8,4.25 -2.75,4.15 L-2.5,4.05 C-2.65,4.65 -2.8,5.3 -2.95,6 L-3.2,6.15z M-3.25,6.35 L-2.95,6.25 -3.15,8.3 -3.65,8.4 -3.25,6.35z M-3.15,8.5 L-3.4,10.7 -3.95,10.8 -3.65,8.65 -3.15,8.5z M-3.45,10.95 C-3.55,12.05 -3.6,12.7 -3.55,13 L-3.85,13.1 C-3.95,12.6 -3.95,12 -3.95,11.05 L-3.45,10.95z M-0.3,10.9 L-0.65,12.7 C-1.55,12.6 -2.5,12.65 -3.35,12.95 -3.35,12.25 -3.35,11.55 -3.2,10.9 -2.3,10.7 -1.3,10.7 -0.3,10.9z M-3.25,10.65 L-2.95,8.45 C-1.8,8.3 -0.85,8.25 -0.05,8.4 L-0.25,10.6 C-1.3,10.4 -2.3,10.4 -3.25,10.65z M-1.3,15.4 C-1.8,15.2 -2.25,14.85 -2.65,14.55 L-2.75,14.45 C-3.05,14.2 -3.2,13.75 -3.35,13.2 -2.4,12.95 -1.55,12.9 -0.75,13 L-1.3,15.4z M-3.4,13.8 L-3.65,13.6 -3.8,13.3 -3.55,13.2 -3.4,13.8z"/>
      </g>
    </g>
  </g>
</svg>
